;Generated with Cura_SteamEngine 13.12
;FLAVOR:UltiGCode
;TIME:1830      
;MATERIAL:3024      
;MATERIAL2:0         

;Layer count: 99
;LAYER:0
M107
G0 F2220 X93.30 Y92.68 Z0.30
;TYPE:SKIRT
G11
G1 F1200 X95.17 Y90.80 E0.31803
G1 X103.60 Y90.80 E1.32963
G1 X104.77 Y89.64 E1.52717
G1 X105.94 Y89.15 E1.67986
G1 X123.49 Y89.15 E3.78502
G1 X124.66 Y89.64 E3.93772
G1 X125.83 Y90.80 E4.13509
G1 X134.82 Y90.80 E5.21485
G1 X136.70 Y92.67 E5.53296
G1 X136.70 Y104.40 E6.93996
G1 X137.54 Y107.03 E7.27130
G1 X137.60 Y107.27 E7.30113
G1 X138.12 Y110.55 E7.69910
G1 X138.13 Y110.79 E7.72883
G1 X138.14 Y114.08 E8.12363
G1 X138.14 Y114.19 E8.13660
G1 X138.12 Y114.36 E8.15728
G1 X138.11 Y114.51 E8.17466
G1 X137.59 Y117.78 E8.57172
G1 X137.53 Y118.02 E8.60147
G1 X136.70 Y120.60 E8.92760
G1 X136.70 Y132.32 E10.33412
G1 X134.82 Y134.20 E10.65232
G1 X125.82 Y134.20 E11.73244
G1 X124.66 Y135.36 E11.92964
G1 X123.49 Y135.85 E12.08243
G1 X115.03 Y135.85 E13.09727
G1 X106.62 Y135.85 E14.10587
G1 X105.98 Y135.86 E14.18327
G1 X104.78 Y135.37 E14.33906
G1 X103.61 Y134.20 E14.53753
G1 X95.18 Y134.20 E15.54937
G1 X93.30 Y132.32 E15.86748
G1 X93.30 Y120.60 E17.27424
G1 X92.46 Y117.97 E17.60585
G1 X92.40 Y117.73 E17.63568
G1 X91.88 Y114.45 E18.03365
G1 X91.86 Y114.21 E18.06338
G1 X91.86 Y110.92 E18.45818
G1 X91.86 Y110.81 E18.47114
G1 X91.87 Y110.64 E18.49183
G1 X91.89 Y110.49 E18.50921
G1 X92.41 Y107.22 E18.90627
G1 X92.47 Y106.98 E18.93601
G1 X93.30 Y104.40 E19.26207
G1 X93.30 Y92.68 E20.66871
G0 F2220 X103.50 Y103.20
G1 F1200 X102.21 Y105.07 E20.94162
G1 X101.24 Y107.08 E21.20954
G1 X100.59 Y109.18 E21.47287
G1 X100.25 Y111.39 E21.74099
G1 X100.25 Y113.61 E22.00787
G1 X100.60 Y115.86 E22.28083
G1 X101.25 Y117.95 E22.54427
G1 X102.23 Y119.96 E22.81219
G1 X103.49 Y121.79 E23.07918
G1 X105.03 Y123.43 E23.34820
G1 X106.77 Y124.79 E23.61396
G1 X108.95 Y126.00 E23.91292
G1 X111.31 Y126.82 E24.21232
G1 X113.76 Y127.24 E24.51053
G1 X116.24 Y127.24 E24.80837
G1 X118.69 Y126.82 E25.10658
G1 X121.04 Y126.00 E25.40533
G1 X123.23 Y124.79 E25.70564
G1 X124.97 Y123.43 E25.97070
G1 X126.51 Y121.79 E26.23973
G1 X127.77 Y119.96 E26.50672
G1 X128.75 Y117.95 E26.77463
G1 X129.41 Y115.82 E27.04248
G1 X129.75 Y113.61 E27.31060
G1 X129.75 Y111.39 E27.57796
G1 X129.41 Y109.18 E27.84609
G1 X128.75 Y107.05 E28.11394
G1 X127.77 Y105.04 E28.38185
G1 X126.51 Y103.21 E28.64884
G1 X124.97 Y101.58 E28.91719
G1 X123.21 Y100.21 E29.18588
G1 X120.66 Y98.84 E29.53291
G1 X117.89 Y98.00 E29.88029
G1 X115.00 Y97.72 E30.22828
G1 X112.11 Y98.00 E30.57628
G1 X109.34 Y98.84 E30.92392
G1 X106.76 Y100.22 E31.27519
G1 X105.00 Y101.61 E31.54411
G1 X103.50 Y103.20 E31.80625
G10
G0 F2220 X100.52 Y100.83
;TYPE:WALL-INNER
G11
G1 F1200 X98.91 Y103.18 E32.14772
G1 X97.69 Y105.70 E32.48435
G1 X96.88 Y108.30 E32.81091
G1 X96.87 Y108.34 E32.81644
G1 X96.46 Y111.07 E33.14780
G1 X96.45 Y113.88 E33.48452
G1 X96.46 Y113.93 E33.49005
G1 X96.89 Y116.74 E33.83154
G1 X97.72 Y119.38 E34.16356
G1 X98.95 Y121.90 E34.50033
G1 X100.55 Y124.21 E34.83703
G1 X102.47 Y126.25 E35.17378
G1 X104.65 Y127.95 E35.50534
G1 X104.69 Y127.98 E35.51123
G1 X107.38 Y129.47 E35.88023
G1 X110.38 Y130.52 E36.26138
G1 X113.41 Y131.03 E36.63045
G1 X116.54 Y131.04 E37.00557
G1 X116.59 Y131.03 E37.01171
G1 X119.67 Y130.50 E37.38684
G1 X122.62 Y129.47 E37.76192
G1 X125.31 Y127.98 E38.13103
G1 X125.35 Y127.95 E38.13692
G1 X127.56 Y126.22 E38.47382
G1 X129.48 Y124.17 E38.81059
G1 X131.07 Y121.86 E39.14728
G1 X132.30 Y119.34 E39.48411
G1 X133.12 Y116.70 E39.81545
G1 X133.13 Y116.65 E39.82098
G1 X133.55 Y113.88 E40.15776
G1 X133.54 Y111.07 E40.49448
G1 X133.13 Y108.34 E40.82584
G1 X133.12 Y108.30 E40.83137
G1 X132.28 Y105.62 E41.16817
G1 X131.05 Y103.10 E41.50494
G1 X129.45 Y100.79 E41.84164
G1 X127.52 Y98.75 E42.17865
G1 X125.26 Y96.99 E42.52266
G1 X122.09 Y95.31 E42.95341
G1 X118.60 Y94.25 E43.39101
G1 X115.03 Y93.90 E43.82148
G1 X114.97 Y93.90 E43.82856
G1 X111.40 Y94.25 E44.25902
G1 X107.85 Y95.33 E44.70374
G1 X104.65 Y97.05 E45.14011
G1 X102.41 Y98.81 E45.48187
G1 X100.52 Y100.83 E45.81398
G0 F2220 X100.32 Y99.15
G1 F1200 X100.83 Y98.87 E45.88346
G1 X100.89 Y98.83 E45.89239
G1 X101.29 Y98.44 E45.95942
G1 X101.60 Y97.93 E46.03104
G1 X101.75 Y97.47 E46.08819
G1 X101.76 Y97.40 E46.09688
G1 X101.80 Y96.90 E46.15738
G1 X101.79 Y96.82 E46.16689
G1 X101.69 Y96.31 E46.23003
G1 X101.67 Y96.24 E46.23884
G1 X101.42 Y95.74 E46.30528
G1 X101.10 Y95.35 E46.36563
G1 X101.05 Y95.30 E46.37463
G1 X100.58 Y94.97 E46.44395
G1 X100.04 Y94.76 E46.51317
G1 X99.54 Y94.70 E46.57354
G1 X99.46 Y94.70 E46.58266
G1 X98.96 Y94.76 E46.64290
G1 X98.42 Y94.97 E46.71213
G1 X97.95 Y95.30 E46.78145
G1 X97.90 Y95.35 E46.79062
G1 X97.58 Y95.74 E46.85106
G1 X97.32 Y96.26 E46.92024
G1 X97.21 Y96.82 E46.98969
G1 X97.20 Y96.90 E46.99871
G1 X97.24 Y97.40 E47.05896
G1 X97.41 Y97.95 E47.12819
G1 X97.44 Y98.02 E47.13710
G1 X97.77 Y98.51 E47.20876
G1 X98.13 Y98.84 E47.26683
G1 X98.19 Y98.89 E47.27595
G1 X98.70 Y99.16 E47.34552
G1 X99.26 Y99.29 E47.41415
G1 X99.74 Y99.29 E47.47187
G1 X100.32 Y99.15 E47.54397
G0 F2220 X101.60 Y97.93
G0 X101.67 Y96.24
G0 X100.58 Y94.97
G0 X98.89 Y94.78
G0 X97.10 Y94.60
G1 F1200 X105.25 Y94.60 E48.52173
G1 X105.60 Y94.25 E48.58146
G1 X105.60 Y94.18 E48.58974
G1 X106.83 Y92.95 E48.79831
G1 X122.60 Y92.95 E50.69119
G1 X124.16 Y94.51 E50.95542
G1 X124.38 Y94.60 E50.98404
G1 X132.90 Y94.60 E52.00632
G1 X132.90 Y104.95 E53.24796
G1 X132.91 Y105.04 E53.25912
G1 X133.87 Y108.03 E53.63551
G1 X134.34 Y110.97 E53.99289
G1 X134.34 Y114.01 E54.35805
G1 X133.86 Y117.01 E54.72315
G1 X132.91 Y119.96 E55.09437
G1 X132.90 Y120.05 E55.10565
G1 X132.90 Y130.40 E56.34729
G1 X124.38 Y130.40 E57.36981
G1 X124.16 Y130.49 E57.39838
G1 X122.60 Y132.05 E57.66278
G1 X106.83 Y132.05 E59.55554
G1 X105.60 Y130.82 E59.76403
G1 X105.60 Y130.75 E59.77231
G1 X105.25 Y130.40 E59.83196
G1 X97.10 Y130.40 E60.80972
G1 X97.10 Y120.05 E62.05148
G1 X97.09 Y119.96 E62.06266
G1 X96.13 Y116.97 E62.43890
G1 X95.66 Y114.03 E62.79664
G1 X95.66 Y110.99 E63.16144
G1 X96.14 Y107.98 E63.52679
G1 X97.08 Y105.04 E63.89782
G1 X97.10 Y104.95 E63.90912
G1 X97.10 Y94.60 E65.15064
G0 F2220 X97.92 Y105.44
G0 X98.93 Y103.14
G0 X100.55 Y100.79
G0 X102.45 Y98.78
G0 X104.69 Y97.02
G0 X107.91 Y95.31
G0 X111.40 Y94.25
G0 X115.03 Y93.90
G0 X118.66 Y94.26
G0 X122.14 Y95.33
G0 X125.30 Y97.02
G0 X127.56 Y98.78
G0 X129.48 Y100.83
G0 X131.07 Y103.14
G0 X132.30 Y105.66
G0 X133.13 Y108.35
G0 X133.55 Y111.12
G0 X133.54 Y113.93
G0 X133.12 Y116.70
G0 X132.28 Y119.38
G0 X131.05 Y121.90
G0 X129.45 Y124.21
G0 X127.53 Y126.25
G0 X125.31 Y127.98
G0 X122.57 Y129.49
G0 X119.62 Y130.51
G0 X116.54 Y131.04
G0 X113.41 Y131.03
G0 X110.33 Y130.50
G0 X107.38 Y129.47
G0 X104.65 Y127.95
G0 X102.44 Y126.22
G0 X100.52 Y124.17
G0 X99.46 Y125.70
G1 F1200 X98.96 Y125.76 E65.21087
G1 X98.42 Y125.96 E65.28021
G1 X97.95 Y126.30 E65.34952
G1 X97.90 Y126.35 E65.35869
G1 X97.58 Y126.74 E65.41914
G1 X97.32 Y127.26 E65.48832
G1 X97.21 Y127.82 E65.55777
G1 X97.20 Y127.90 E65.56679
G1 X97.24 Y128.40 E65.62704
G1 X97.41 Y128.95 E65.69627
G1 X97.44 Y129.02 E65.70518
G1 X97.77 Y129.51 E65.77683
G1 X98.13 Y129.84 E65.83491
G1 X98.19 Y129.89 E65.84403
G1 X98.70 Y130.15 E65.91359
G1 X99.26 Y130.29 E65.98223
G1 X99.74 Y130.29 E66.03995
G1 X100.32 Y130.15 E66.11204
G1 X100.83 Y129.87 E66.18152
G1 X100.89 Y129.83 E66.19044
G1 X101.29 Y129.44 E66.25748
G1 X101.60 Y128.93 E66.32910
G1 X101.75 Y128.47 E66.38625
G1 X101.76 Y128.40 E66.39494
G1 X101.80 Y127.90 E66.45544
G1 X101.79 Y127.82 E66.46495
G1 X101.69 Y127.31 E66.52809
G1 X101.67 Y127.24 E66.53690
G1 X101.42 Y126.74 E66.60334
G1 X101.10 Y126.35 E66.66369
G1 X101.05 Y126.30 E66.67269
G1 X100.58 Y125.97 E66.74201
G1 X100.04 Y125.76 E66.81123
G1 X99.54 Y125.70 E66.87147
G1 X99.46 Y125.70 E66.88059
G0 F2220 X96.88 Y116.69
G0 X96.45 Y113.88
G0 X96.46 Y111.07
G0 X96.88 Y108.30
G0 X97.71 Y105.66
G0 X98.93 Y103.14
G0 X100.55 Y100.79
G0 X102.45 Y98.78
G0 X104.69 Y97.02
G0 X107.91 Y95.31
G0 X111.40 Y94.25
G0 X115.03 Y93.90
G0 X118.66 Y94.26
G0 X122.14 Y95.33
G0 X125.30 Y97.02
G0 X127.56 Y98.78
G0 X129.48 Y100.83
G0 X131.07 Y103.14
G0 X132.30 Y105.66
G0 X133.13 Y108.35
G0 X133.55 Y111.12
G0 X133.54 Y113.93
G0 X133.12 Y116.70
G0 X132.28 Y119.38
G0 X131.05 Y121.90
G0 X129.45 Y124.21
G0 X127.53 Y126.25
G0 X128.21 Y127.82
G1 F1200 X128.20 Y127.90 E66.88961
G1 X128.23 Y128.40 E66.94986
G1 X128.40 Y128.95 E67.01909
G1 X128.44 Y129.02 E67.02800
G1 X128.77 Y129.51 E67.09966
G1 X129.12 Y129.84 E67.15773
G1 X129.19 Y129.89 E67.16686
G1 X129.70 Y130.15 E67.23642
G1 X130.26 Y130.29 E67.30505
G1 X130.74 Y130.29 E67.36277
G1 X131.32 Y130.15 E67.43487
G1 X131.83 Y129.87 E67.50434
G1 X131.89 Y129.83 E67.51327
G1 X132.29 Y129.44 E67.58031
G1 X132.60 Y128.93 E67.65192
G1 X132.75 Y128.47 E67.70908
G1 X132.76 Y128.40 E67.71776
G1 X132.80 Y127.90 E67.77827
G1 X132.79 Y127.82 E67.78777
G1 X132.69 Y127.31 E67.85091
G1 X132.67 Y127.24 E67.85972
G1 X132.42 Y126.74 E67.92616
G1 X132.10 Y126.35 E67.98651
G1 X132.05 Y126.30 E67.99551
G1 X131.58 Y125.97 E68.06483
G1 X131.04 Y125.76 E68.13406
G1 X130.54 Y125.70 E68.19429
G1 X130.46 Y125.70 E68.20341
G1 X129.96 Y125.76 E68.26363
G1 X129.42 Y125.96 E68.33297
G1 X128.95 Y126.30 E68.40229
G1 X128.90 Y126.35 E68.41146
G1 X128.57 Y126.74 E68.47191
G1 X128.32 Y127.26 E68.54109
G1 X128.21 Y127.82 E68.61053
G0 F2220 X119.62 Y130.51
G0 X116.54 Y131.04
G0 X113.41 Y131.03
G0 X110.33 Y130.50
G0 X107.38 Y129.47
G0 X104.65 Y127.95
G0 X102.44 Y126.22
G0 X100.52 Y124.17
G0 X98.93 Y121.86
G0 X97.70 Y119.33
G0 X96.88 Y116.69
G0 X96.45 Y113.88
G0 X96.46 Y111.07
G0 X96.88 Y108.30
G0 X97.71 Y105.66
G0 X98.93 Y103.14
G0 X100.55 Y100.79
G0 X102.45 Y98.78
G0 X104.69 Y97.02
G0 X107.91 Y95.31
G0 X111.40 Y94.25
G0 X115.03 Y93.90
G0 X118.66 Y94.26
G0 X122.14 Y95.33
G0 X125.30 Y97.02
G0 X127.56 Y98.78
G0 X130.26 Y99.29
G1 F1200 X130.74 Y99.29 E68.66825
G1 X131.32 Y99.15 E68.74035
G1 X131.83 Y98.87 E68.80982
G1 X131.89 Y98.83 E68.81875
G1 X132.29 Y98.44 E68.88579
G1 X132.60 Y97.93 E68.95741
G1 X132.75 Y97.47 E69.01456
G1 X132.76 Y97.40 E69.02324
G1 X132.80 Y96.90 E69.08375
G1 X132.79 Y96.82 E69.09325
G1 X132.69 Y96.31 E69.15640
G1 X132.67 Y96.24 E69.16520
G1 X132.42 Y95.74 E69.23164
G1 X132.10 Y95.35 E69.29199
G1 X132.05 Y95.30 E69.30099
G1 X131.58 Y94.97 E69.37031
G1 X131.04 Y94.76 E69.43954
G1 X130.54 Y94.70 E69.49991
G1 X130.46 Y94.70 E69.50903
G1 X129.96 Y94.76 E69.56927
G1 X129.42 Y94.97 E69.63849
G1 X128.95 Y95.30 E69.70781
G1 X128.90 Y95.35 E69.71681
G1 X128.54 Y95.80 E69.78625
G1 X128.30 Y96.33 E69.85564
G1 X128.21 Y96.82 E69.91605
G1 X128.20 Y96.90 E69.92507
G1 X128.23 Y97.40 E69.98532
G1 X128.40 Y97.95 E70.05455
G1 X128.44 Y98.02 E70.06346
G1 X128.77 Y98.51 E70.13512
G1 X129.12 Y98.84 E70.19320
G1 X129.19 Y98.89 E70.20232
G1 X129.70 Y99.16 E70.27188
G1 X130.26 Y99.29 E70.34052
G0 F2220 X130.28 Y98.89
;TYPE:WALL-OUTER
G1 F1200 X130.71 Y98.89 E70.39224
G1 X130.74 Y98.89 E70.39526
G1 X131.22 Y98.76 E70.45510
G1 X131.62 Y98.54 E70.50942
G1 X131.64 Y98.52 E70.51242
G1 X131.98 Y98.18 E70.57046
G1 X132.22 Y97.81 E70.62404
G1 X132.23 Y97.78 E70.62705
G1 X132.37 Y97.35 E70.68121
G1 X132.40 Y96.90 E70.73557
G1 X132.40 Y96.87 E70.73870
G1 X132.30 Y96.41 E70.79573
G1 X132.29 Y96.38 E70.79873
G1 X132.10 Y95.97 E70.85320
G1 X131.79 Y95.61 E70.91047
G1 X131.43 Y95.34 E70.96476
G1 X131.40 Y95.33 E70.96777
G1 X130.96 Y95.16 E71.02490
G1 X130.51 Y95.10 E71.07923
G1 X130.49 Y95.10 E71.08235
G1 X130.01 Y95.16 E71.13949
G1 X129.59 Y95.33 E71.19369
G1 X129.57 Y95.34 E71.19670
G1 X129.19 Y95.62 E71.25391
G1 X128.89 Y96.00 E71.31122
G1 X128.69 Y96.43 E71.36857
G1 X128.60 Y96.87 E71.42291
G1 X128.60 Y96.90 E71.42591
G1 X128.64 Y97.38 E71.48319
G1 X128.79 Y97.83 E71.54026
G1 X129.05 Y98.23 E71.59831
G1 X129.38 Y98.53 E71.65180
G1 X129.40 Y98.55 E71.65480
G1 X129.82 Y98.77 E71.71218
G1 X130.28 Y98.89 E71.76911
G0 F2220 X130.25 Y99.18
G0 X129.39 Y100.87
G0 X129.15 Y101.06
G1 F1200 X127.27 Y99.06 E72.09875
G1 X125.07 Y97.35 E72.43285
G1 X121.96 Y95.68 E72.85654
G1 X118.54 Y94.65 E73.28475
G1 X115.01 Y94.30 E73.71039
G1 X114.99 Y94.30 E73.71291
G1 X111.44 Y94.65 E74.14088
G1 X108.03 Y95.69 E74.56907
G1 X104.88 Y97.37 E74.99690
G1 X102.69 Y99.10 E75.33117
G1 X100.85 Y101.06 E75.65418
G1 X100.84 Y101.07 E75.65598
G1 X99.26 Y103.36 E75.99026
G1 X98.07 Y105.83 E76.31958
G1 X97.26 Y108.42 E76.64447
G1 X96.85 Y111.12 E76.97220
G1 X96.85 Y113.88 E77.30352
G1 X97.28 Y116.63 E77.63782
G1 X98.08 Y119.22 E77.96267
G1 X99.29 Y121.68 E78.29214
G1 X100.85 Y123.94 E78.62164
G1 X102.73 Y125.94 E78.95127
G1 X104.90 Y127.64 E79.28105
G1 X107.57 Y129.12 E79.64816
G1 X110.46 Y130.12 E80.01511
G1 X113.48 Y130.64 E80.38233
G1 X116.54 Y130.63 E80.74929
G1 X119.55 Y130.12 E81.11643
G1 X122.44 Y129.11 E81.48350
G1 X125.12 Y127.63 E81.85057
G1 X127.28 Y125.93 E82.18017
G1 X129.16 Y123.93 E82.50963
G1 X130.72 Y121.67 E82.83920
G1 X131.92 Y119.20 E83.16867
G1 X132.74 Y116.58 E83.49835
G1 X133.15 Y113.88 E83.82608
G1 X133.15 Y111.13 E84.15560
G1 X133.15 Y111.12 E84.15740
G1 X132.73 Y108.40 E84.48697
G1 X131.91 Y105.78 E84.81660
G1 X130.71 Y103.31 E85.14607
G1 X129.15 Y101.06 E85.47558
G0 F2220 X129.39 Y100.87
G0 X133.01 Y104.99
G0 X133.30 Y104.95
G1 F1200 X134.26 Y107.93 E85.85169
G1 X134.74 Y110.94 E86.21709
G1 X134.74 Y114.02 E86.58681
G1 X134.74 Y114.06 E86.59114
G1 X134.25 Y117.11 E86.96219
G1 X133.30 Y120.08 E87.33687
G1 X133.30 Y130.80 E88.62279
G1 X124.46 Y130.80 E89.68371
G1 X124.39 Y130.83 E89.69318
G1 X122.77 Y132.45 E89.96793
G1 X106.66 Y132.45 E91.90077
G1 X105.20 Y130.99 E92.14863
G1 X105.20 Y130.92 E92.15691
G1 X105.08 Y130.80 E92.17685
G1 X96.70 Y130.80 E93.18269
G1 X96.69 Y120.05 E94.47245
G1 X95.74 Y117.07 E94.84842
G1 X95.26 Y114.06 E95.21381
G1 X95.26 Y110.98 E95.58353
G1 X95.26 Y110.94 E95.58786
G1 X95.75 Y107.89 E95.95903
G1 X96.70 Y104.92 E96.33371
G1 X96.70 Y94.20 E97.61951
G1 X105.08 Y94.20 E98.62535
G1 X105.20 Y94.08 E98.64537
G1 X105.20 Y94.01 E98.65365
G1 X106.66 Y92.55 E98.90193
G1 X122.77 Y92.55 E100.83465
G1 X124.39 Y94.17 E101.10924
G1 X124.46 Y94.20 E101.11875
G1 X133.30 Y94.20 E102.17943
G1 X133.30 Y104.95 E103.46907
G0 F2220 X133.01 Y104.99
G0 X133.54 Y113.93
G0 X133.12 Y116.70
G0 X132.28 Y119.38
G0 X130.55 Y125.80
G0 X130.51 Y126.10
G1 F1200 X130.49 Y126.10 E103.47207
G1 X130.01 Y126.16 E103.52932
G1 X129.59 Y126.33 E103.58351
G1 X129.57 Y126.34 E103.58652
G1 X129.19 Y126.62 E103.64383
G1 X128.89 Y127.00 E103.70116
G1 X128.69 Y127.43 E103.75840
G1 X128.60 Y127.87 E103.81274
G1 X128.60 Y127.90 E103.81574
G1 X128.64 Y128.37 E103.87302
G1 X128.79 Y128.82 E103.93009
G1 X129.05 Y129.23 E103.98814
G1 X129.38 Y129.53 E104.04162
G1 X129.40 Y129.55 E104.04462
G1 X129.82 Y129.77 E104.10201
G1 X130.28 Y129.88 E104.15894
G1 X130.71 Y129.89 E104.21066
G1 X130.74 Y129.88 E104.21368
G1 X131.22 Y129.76 E104.27353
G1 X131.62 Y129.54 E104.32784
G1 X131.64 Y129.52 E104.33084
G1 X131.98 Y129.18 E104.38889
G1 X132.22 Y128.80 E104.44247
G1 X132.23 Y128.78 E104.44548
G1 X132.37 Y128.35 E104.49963
G1 X132.40 Y127.90 E104.55400
G1 X132.40 Y127.87 E104.55713
G1 X132.30 Y127.41 E104.61415
G1 X132.29 Y127.38 E104.61715
G1 X132.10 Y126.97 E104.67163
G1 X131.79 Y126.61 E104.72889
G1 X131.43 Y126.34 E104.78318
G1 X131.40 Y126.33 E104.78619
G1 X130.96 Y126.16 E104.84344
G1 X130.51 Y126.10 E104.89764
G0 F2220 X130.55 Y125.80
G0 X133.13 Y116.65
G0 X133.55 Y113.88
G0 X133.54 Y111.07
G0 X133.12 Y108.30
G0 X132.28 Y105.62
G0 X131.05 Y103.10
G0 X129.45 Y100.79
G0 X127.53 Y98.75
G0 X125.26 Y96.99
G0 X122.09 Y95.31
G0 X118.60 Y94.25
G0 X114.97 Y93.90
G0 X111.34 Y94.26
G0 X107.86 Y95.33
G0 X104.65 Y97.05
G0 X102.41 Y98.81
G0 X100.52 Y100.83
G0 X98.91 Y103.18
G0 X97.69 Y105.70
G0 X96.87 Y108.35
G0 X96.45 Y111.12
G0 X96.46 Y113.92
G0 X96.89 Y116.73
G0 X97.72 Y119.38
G0 X98.95 Y121.90
G0 X100.55 Y124.21
G0 X102.47 Y126.25
G0 X101.70 Y127.92
G0 X101.40 Y127.90
G1 F1200 X101.40 Y127.87 E104.90076
G1 X101.30 Y127.41 E104.95779
G1 X101.30 Y127.38 E104.96079
G1 X101.10 Y126.97 E105.01526
G1 X100.79 Y126.61 E105.07253
G1 X100.43 Y126.34 E105.12682
